Papirus/16x16/actions/view-calendar-wedding-anniversary.svg

<?xml version="1.0" encoding="UTF-8" standalone="no"?>
<svg xmlns="http://www.w3.org/2000/svg" viewBox="0 0 16 16">
  <defs>
    <style type="text/css" id="current-color-scheme">
      .ColorScheme-Text {
        color:#5c616c;
      }
      </style>
  </defs>
  <path style="fill:currentColor;opacity:1" class="ColorScheme-Text" d="M 6.0039062 2 A 6 6 0 0 0 0.00390625 8 A 6 6 0 0 0 6.0039062 14 A 6 6 0 0 0 8.0019531 13.648438 A 6 6 0 0 0 10.003906 14 A 6 6 0 0 0 16.003906 8 A 6 6 0 0 0 10.003906 2 A 6 6 0 0 0 8.0039062 2.3496094 A 6 6 0 0 0 6.0039062 2 z M 5.5097656 4.0351562 A 6 6 0 0 0 4.0039062 8 A 6 6 0 0 0 5.5078125 11.964844 A 4 4 0 0 1 2.0039062 8 A 4 4 0 0 1 5.5097656 4.0351562 z M 10.498047 4.0351562 A 4 4 0 0 1 14.003906 8 A 4 4 0 0 1 10.496094 11.964844 A 6 6 0 0 0 12.003906 8 A 6 6 0 0 0 10.498047 4.0351562 z M 8.0058594 4.5410156 A 4 4 0 0 1 10.003906 8 A 4 4 0 0 1 8.0019531 11.458984 A 4 4 0 0 1 6.0039062 8 A 4 4 0 0 1 8.0058594 4.5410156 z "/>
</svg>

<?xml version="1.0" encoding="UTF-8" standalone="no"?>
<!--Created with Inkscape (http://www.inkscape.org/)-->
<svg id="svg7384" xmlns:rdf="http://www.w3.org/1999/02/22-rdf-syntax-ns#" style="enable-background:new" xmlns="http://www.w3.org/2000/svg" height="16" width="16.003" version="1.1" xmlns:cc="http://creativecommons.org/ns#" xmlns:dc="http://purl.org/dc/elements/1.1/">
 <metadata id="metadata90">
  <rdf:RDF>
   <cc:Work rdf:about="">
    <dc:format>image/svg+xml</dc:format>
    <dc:type rdf:resource="http://purl.org/dc/dcmitype/StillImage"/>
   </cc:Work>
  </rdf:RDF>
 </metadata>
 <defs id="defs7386">
  <filter id="filter7554" fill-interpolation-filters="sRGB">
   <feBlend id="feBlend7556" in2="BackgroundImage" mode="darken"/>
  </filter>
 </defs>
 <g id="layer10" filter="url(#filter7554)" transform="translate(-325 139)">
  <g id="g4156" opacity="1" fill="#5c616c" transform="translate(-1.9985)">
   <path id="path4148" opacity="1" fill="#5c616c" transform="translate(327 -139)" d="m6.002 2a6 6 0 0 0 -6 6 6 6 0 0 0 6 6 6 6 0 0 0 1.998 -0.352 6 6 0 0 0 2.002 0.352 6 6 0 0 0 6 -6 6 6 0 0 0 -6 -6 6 6 0 0 0 -2 0.3496 6 6 0 0 0 -2 -0.3496zm-0.4942 2.0352a6 6 0 0 0 -1.5058 3.9648 6 6 0 0 0 1.5039 3.965 4 4 0 0 1 -3.5039 -3.965 4 4 0 0 1 3.5058 -3.9648zm4.9882 0a4 4 0 0 1 3.506 3.9648 4 4 0 0 1 -3.508 3.965 6 6 0 0 0 1.508 -3.965 6 6 0 0 0 -1.506 -3.9648zm-2.4921 0.5058a4 4 0 0 1 1.9981 3.459 4 4 0 0 1 -2.002 3.459 4 4 0 0 1 -1.998 -3.459 4 4 0 0 1 2.0019 -3.459z"/>
  </g>
 </g>
</svg>
